!!!ONB: MCCC : IMR0030_05 : Extracted Monophonic Melody
!!!COM: Ravel, Maurice
!!!OPR: Miroirs
!!!OMV: 5
!!!SCT: M.43
!!!ODT: 1903///
**kern
*staff1
*clefG2
*k[b-e-a-d-]
*A-:
*M3/4
2aaa-[
=3
2aaa-]
4r
=4
4r
4r
4aaa-[
=5
2aaa-]
4r
=6
2.r
=7
2.r
=8
4r
2aaa-[
=9
2.aaa-]
=10
8gg-
8ee
8gg-
8a-
8gg-
8ee
=11
8gg-
8a-
8gg-
8ee
8gg-
8a-
=12
8gg-
8ee
8gg-
8a-
8gg-
8ee
=13
8gg-
8a-
8gg-
8ee
8gg-
8a-
=14
8gg-
8ee
8gg-
8a-
8gg-
8ee
=15
8gg-
8a-
8gg-
8ee
8gg-
8a-
=16
8gg-
8ee
8gg-
8a-
8gg-
8ee
=17
8gg-
8a-
8gg-
8ee
8gg-
8a-
=18
8gg-
8ee
8gg-
8a-
8gg-
8ee
=19
8gg-
8a-
8gg-
8ee
8gg-
8a-
=20
8gg-
8ee
8gg-
8a-
8gg-
8ee
=21
8gg-
8a-
8gg-
8ee
8gg-
8a-
=22
8gg-
8ee
8gg-
8a-
8gg-
8ee
=23
8gg-
8cc-
8ee
8cc-
8ee
8cc-
=24
8ee
8cc-
8ee
8a-
8ee
8cc-
=25
8ee
8a-
8ee
8cc-
8ee
8a-
=26
8ee
8cc-
8ee
8a-
8ee
8cc-
=27
8ee
8a-
8ee
8cc-
8ee
8a-
=28
8ee
8cc-
8ee
8a-
8ee
8cc-
=29
8ee
8a-
8ee
8cc-
8ee
8a-
=30
8ee
8cc-
8ee
8a-
8ee
8cc-
=31
8ee
8a-
8ee
8cc-
8ee
8a-
=32
8ee
8cc-
8ee
8a-
8ee
8cc-
=33
8ee
8a-
8ee
8cc-
8ee
8a-
=34
8ee
8cc-
8ee
8a-
8ee
8cc-
=35
8ee
8a-
8ee
8cc-
8ee
8a-
=36
8ee
8cc-
8ee
8a-
8ee
8cc-
=37
8ee
8a-
8ee
8cc-
4ee
=38
2.r
=39
4r
4r
8r
8a-
=40
8ee
8cc-
8ee
8a-
8ee
8cc-
=41
8ee
8a-
4r
4r
=42
2.r
=43
2.r
=44
2.r
=45
2.r
=46
2.r
=47
2.r
=48
2.r
=49
2.ggg-
=50
2.ddd-[
=51
2.ddd-]
=52
2.r
=53
2.ggg-
=54
2.ddd-[
=55
2.ddd-]
=56
2.r
=57
2.ggg-
=58
2.ddd-
=59
2.eee-
=60
2.bb-[
=61
2.bb-]
=62
2.r
=63
2.eee-
=64
2.bb-
=65
2.ccc
=66
2.ccc
=67
2.ccc
=68
2.ccc[
=69
4ccc]
4r
4r
=70
4r
2ccc
=71
2.ccc
=72
2.ccc
=73
2.ccc[
=74
2ccc]
4r
=75
4r
4r
4cc
=76
2.cc
=77
2.cc
=78
2.cc[
=79
2cc]
4r
=80
2.r
=81
2.r
=82
2.r
=83
2.r
=84
2.b-
=85
2.b-
=86
2.b-
=87
2.r
=88
4r
4r
4b-[
=89
2b-]
4b-[
=90
2b-]
4b-[
=91
2b-]
4r
=92
2.r
=93
2.b-[
=94
4b-]
2b-
=95
2.b-[
=96
4b-]
4r
4r
=97
2.r
=98
2.b-
=99
2.bb-
=100
2b-
4r
=101
4r
8r
4.ccc
=102
4ddd-
4eee-
4eee-[
=103
4eee-]
4.ddd-
8ccc[
=104
4ccc]
4.bb-
8aa-[
=105
4aa-]
2bb-[
=106
2bb-]
4ccc
=107
4ddd-
4.fff
8eee-[
=108
4eee-]
4.ddd-
8eee-[
=109
4eee-]
2ccc[
=110
4ccc]
2bb-[
=111
4bb-]
4.aa-
8bb-[
=112
4bb-]
4.ccc
8aa-[
=113
4aa-]
2ff
=114
2.ff[
=115
4ff]
2ee-[
=116
4ee-]
2aa-[
=117
4aa-]
2ff
=118
2.ff
=119
2.ff[
=120
4ff]
2cc
=121
2cc[
8cc]
8cc[
=122
4cc]
2cc[
=123
4cc]
2b-[
=124
2b-]
4a-
=125
4b-
4.cc
8ee-[
=126
4ee-]
2cc[
=127
4cc]
2b-
=128
2b-[
8b-]
8a-[
=129
4a-]
4.b-
8cc[
=130
4cc]
4.ee-
8ff[
=131
4ff]
2cc
=132
2cc[
8cc]
8dd[
=133
4dd]
4.b-
8a-[
=134
4a-]
2g
=135
2.g
=136
2.g
=137
2.g
=138
2.g
=139
2g[
8g]
8a-[
=140
4a-]
2f
=141
2.f
=142
2.f
=143
2f[
8f]
8d-[
=144
4d-]
4e-
4g
=145
2g[
8g]
8a-[
=146
4a-]
2f
=147
2f[
8f]
8g[
=148
4g]
2e-
=149
2e-[
8e-]
8f[
=150
4f]
2c
=151
2.c
=152
2.c
=153
2.c
=154
2.c
=155
2.c
=156
2.c
=157
2.c
=158
2.c
=159
2.c
=160
2.c
=161
2.c
=162
2.c[
=163
2c]
4c
=164
2.c
=165
2c[
8c]
8d-[
=166
4d-]
2G-
=167
2.G-
=168
2.G-[
=169
4G-]
2A-[
=170
4A-]
2B-[
=171
4B-]
4r
4r
=172
2.r
=173
4r
4r
8r
8a-[
=174
4a-]
2b-[
=175
4b-]
4r
4r
=176
2.r
=177
4r
4r
8r
8a-[
=178
4a-]
2b-[
=179
2b-]
4r
=180
2.r
=181
2.a-
=182
4b-[
4b-]
4r
=183
2.r
=184
2.r
=185
4r
2a-
=186
4a-
4b-[
4b-]
=187
2.r
=188
2.r
=189
2.r
=190
2.ddd-
=191
2.aa-[
=192
2.aa-]
=193
2.r
=194
2.ddd-
=195
2.aa-[
=196
2.aa-]
=197
2.r
=198
2.ddd-
=199
2.aa-
=200
2.bb-
=201
2.ff[
=202
2.ff]
=203
2.r
=204
2.bb-
=205
2.ff
=206
2.gg-
=207
2.dd-[
=208
2.dd-]
=209
2.r
=210
2.gg-
=211
2.dd-[
=212
2.dd-]
=213
2.r
=214
2.dd-
=215
2.dd-[
=216
2.dd-]
=217
2.r
=218
2.r
=219
4r
4r
8a-
8gg-
=220
8gg-
8gg-[
4gg-]
8gg-
8ee
=221
8gg-
8a-
8gg-
8ee
4gg-
=222
8gg-
8ee
8gg-
8a-
8gg-
8ee
=223
8gg-
8a-
8gg-
8ee
8gg-
8a-
=224
8gg-
8ee
8gg-
8a-
8gg-
8ee
=225
8gg-
8a-
8gg-
8ee
4gg-
=226
2.r
=227
2.r
=228
4r
4r
8gg-
8ee
=229
4gg-
8gg-
8ee
8gg-
8a-
=230
8gg-
8ee
8gg-
8a-
8gg-
8ee
=231
8gg-
8a-
8gg-
8ee
8gg-
8a-
=232
8gg-
8ee
4gg-
4r
=233
2.r
=234
2.r
=235
8a-
8gg-
8ee
8gg-
4a-
=236
2.r
=237
2.r
=238
2.r
=239
2.r
=240
2.r
=241
2.r
=242
2.r
==
*-
